build/svg/cmd/32/overline.svg

<svg xmlns="http://www.w3.org/2000/svg" viewBox="0 0 32 32"><path d="M16 8c-3.878 0-7 2.676-7 6v8c0 3.324 3.122 6 7 6s7-2.676 7-6v-8c0-3.324-3.122-6-7-6zm1 2c2.216 0 4 1.784 4 4v8c0 2.216-1.784 4-4 4s-4-1.784-4-4v-8c0-2.216 1.784-4 4-4z" opacity=".6" stroke="#000" stroke-width="2" stroke-linejoin="round"/><path d="M16 8c-3.878 0-7 2.676-7 6v8c0 3.324 3.122 6 7 6s7-2.676 7-6v-8c0-3.324-3.122-6-7-6zm1 2c2.216 0 4 1.784 4 4v8c0 2.216-1.784 4-4 4s-4-1.784-4-4v-8c0-2.216 1.784-4 4-4z" fill="#fff"/><path opacity=".6" stroke="#000" stroke-width="2" stroke-linejoin="round" d="M4 4.993h24v-1H4z"/><path fill="#fff" d="M4 4.993h24v-1H4z"/></svg>

<?xml version="1.0" encoding="UTF-8" standalone="no"?>
<svg
   xmlns:dc="http://purl.org/dc/elements/1.1/"
   xmlns:cc="http://creativecommons.org/ns#"
   xmlns:rdf="http://www.w3.org/1999/02/22-rdf-syntax-ns#"
   xmlns:svg="http://www.w3.org/2000/svg"
   xmlns="http://www.w3.org/2000/svg"
   xmlns:sodipodi="http://sodipodi.sourceforge.net/DTD/sodipodi-0.dtd"
   xmlns:inkscape="http://www.inkscape.org/namespaces/inkscape"
   viewBox="0 0 32 32"
   version="1.1"
   id="svg4"
   sodipodi:docname="overline.svg"
   inkscape:version="0.92.5 (2060ec1f9f, 2020-04-08)"
   inkscape:export-filename="/home/jupiter007/Libreoffice yaru theme fullcolor/build/cmd/32/overline.png"
   inkscape:export-xdpi="96"
   inkscape:export-ydpi="96">
  <metadata
     id="metadata10">
    <rdf:RDF>
      <cc:Work
         rdf:about="">
        <dc:format>image/svg+xml</dc:format>
        <dc:type
           rdf:resource="http://purl.org/dc/dcmitype/StillImage" />
      </cc:Work>
    </rdf:RDF>
  </metadata>
  <defs
     id="defs8" />
  <sodipodi:namedview
     pagecolor="#ffffff"
     bordercolor="#666666"
     borderopacity="1"
     objecttolerance="10"
     gridtolerance="10"
     guidetolerance="10"
     inkscape:pageopacity="0"
     inkscape:pageshadow="2"
     inkscape:window-width="1920"
     inkscape:window-height="1011"
     id="namedview6"
     showgrid="true"
     inkscape:zoom="14.75"
     inkscape:cx="-3.7436428"
     inkscape:cy="18.212928"
     inkscape:window-x="0"
     inkscape:window-y="32"
     inkscape:window-maximized="1"
     inkscape:current-layer="svg4">
    <inkscape:grid
       type="xygrid"
       id="grid829" />
  </sodipodi:namedview>
  <path
     id="path863"
     d="M 16 8 C 12.122 8 9 10.676 9 14 L 9 22 C 9 25.324 12.122 28 16 28 C 19.878 28 23 25.324 23 22 L 23 14 C 23 10.676 19.878 8 16 8 z M 17 10 C 19.216 10 21 11.784 21 14 L 21 22 C 21 24.216 19.216 26 17 26 C 14.784 26 13 24.216 13 22 L 13 14 C 13 11.784 14.784 10 17 10 z "
     style="opacity:0.6;fill:#000000;fill-opacity:1;stroke:#000000;stroke-width:2;stroke-linejoin:round;stroke-miterlimit:4;stroke-dasharray:none;stroke-opacity:1" />
  <path
     style="opacity:1;fill:#ffffff;fill-opacity:1;stroke:none;stroke-width:2.0754981;stroke-linejoin:round;stroke-miterlimit:4;stroke-dasharray:none;stroke-opacity:1"
     d="M 16 8 C 12.122 8 9 10.676 9 14 L 9 22 C 9 25.324 12.122 28 16 28 C 19.878 28 23 25.324 23 22 L 23 14 C 23 10.676 19.878 8 16 8 z M 17 10 C 19.216 10 21 11.784 21 14 L 21 22 C 21 24.216 19.216 26 17 26 C 14.784 26 13 24.216 13 22 L 13 14 C 13 11.784 14.784 10 17 10 z "
     id="rect833" />
  <rect
     y="-4.9931302"
     x="4"
     height="1"
     width="24"
     id="rect836"
     style="opacity:0.6;fill:#000000;fill-opacity:1;stroke:#000000;stroke-width:2;stroke-linejoin:round;stroke-miterlimit:4;stroke-dasharray:none;stroke-opacity:1"
     transform="scale(1,-1)" />
  <rect
     style="opacity:1;fill:#ffffff;fill-opacity:1;stroke:none;stroke-width:2;stroke-linejoin:round;stroke-miterlimit:4;stroke-dasharray:none;stroke-opacity:1"
     id="rect834"
     width="24"
     height="1"
     x="4"
     y="-4.9931302"
     transform="scale(1,-1)" />
</svg>
